src/lib/packages/icons/src/assets/filled/cup-straw.svg

<svg width="24" height="24" viewBox="0 0 24 24" fill="none" xmlns="http://www.w3.org/2000/svg">
<path d="M19 6.75H12.84L13.45 4.32001C13.53 3.99001 13.83 3.75 14.18 3.75H17.01C17.42 3.75 17.76 3.41 17.76 3C17.76 2.59 17.42 2.25 17.01 2.25H14.18C13.15 2.25 12.25 2.95 12 3.95L11.3 6.75H5.01001C4.60001 6.75 4.26001 7.09 4.26001 7.5C4.26001 7.91 4.60001 8.25 5.01001 8.25H5.39001L6.63 19.74C6.75 20.89 7.71 21.75 8.87 21.75H15.17C16.32 21.75 17.28 20.89 17.41 19.74L18.65 8.25H19.03C19.44 8.25 19.78 7.91 19.78 7.5C19.78 7.09 19.44 6.75 19.03 6.75H19ZM16.85 10.75H7.15997L6.89001 8.25H17.12L16.85 10.75Z" fill="currentColor"/>
</svg>

<svg xmlns="http://www.w3.org/2000/svg" width="24" height="24" fill="none"><path fill="currentColor" d="M19 6.75h-6.16l.61-2.43a.75.75 0 0 1 .73-.57h2.83c.41 0 .75-.34.75-.75s-.34-.75-.75-.75h-2.83c-1.03 0-1.93.7-2.18 1.7l-.7 2.8H5.01c-.41 0-.75.34-.75.75s.34.75.75.75h.38l1.24 11.49a2.238 2.238 0 0 0 2.24 2.01h6.3c1.15 0 2.11-.86 2.24-2.01l1.24-11.49h.38c.41 0 .75-.34.75-.75s-.34-.75-.75-.75H19Zm-2.15 4H7.16l-.27-2.5h10.23l-.27 2.5Z"/></svg>
